static/assets/images/exchanges/iziswap.svg

<svg width="244" height="256" viewBox="0 0 244 256" fill="none" xmlns="http://www.w3.org/2000/svg">
<path d="M1.45479 115.631L81.6267 0L122.144 58.6787L81.052 117.07H2.31686C2.0295 117.07 2.0295 117.07 1.74215 116.782C1.4548 116.782 1.45479 116.494 1.45479 116.494V115.919C1.16744 115.919 1.45479 115.919 1.45479 115.631ZM242.545 115.631L162.373 0L122.144 58.6787L162.948 117.357H241.683C241.97 117.357 241.97 117.357 242.258 117.07C242.545 117.07 242.545 116.782 242.545 116.782V116.207C242.833 115.919 242.545 115.919 242.545 115.631Z" fill="#BEE2F1"/>
<path d="M243.982 132.315C244.269 148.422 241.108 164.53 235.074 179.488C229.04 194.445 220.132 208.252 208.637 219.757C197.143 231.263 183.638 240.467 168.982 246.508C154.327 252.548 138.236 256 121.856 256C105.764 256 89.6726 252.836 74.7302 246.508C59.7878 240.18 46.2821 231.263 35.0753 219.757C23.8684 208.252 14.6731 194.733 8.63866 179.488C2.89157 164.53 -0.269332 148.422 0.0180225 132.315H77.6037C77.6037 138.355 78.4658 144.108 80.7646 149.573C83.0635 155.038 86.2244 160.216 90.2473 164.243C94.2703 168.557 99.4427 171.721 104.902 174.022C110.362 176.324 116.109 177.474 122.144 177.474C128.178 177.474 133.925 176.324 139.385 174.022C144.845 171.721 149.73 168.27 154.04 164.243C158.063 159.928 161.511 155.038 163.523 149.573C165.822 144.108 166.684 138.067 166.684 132.315H243.982Z" fill="#33A9C9"/>
</svg>

<svg xmlns="http://www.w3.org/2000/svg" fill="none" viewBox="0 0 244 256"><path fill="#BEE2F1" d="M1.455 115.631 81.627 0l40.517 58.679-41.092 58.391H2.317c-.288 0-.288 0-.575-.288-.287 0-.287-.288-.287-.288v-.575c-.288 0 0 0 0-.288m241.09 0L162.373 0l-40.229 58.679 40.804 58.678h78.735c.287 0 .287 0 .575-.287.287 0 .287-.288.287-.288v-.575c.288-.288 0-.288 0-.576"/><path fill="#33A9C9" d="M243.982 132.315c.287 16.107-2.874 32.215-8.908 47.173s-14.942 28.764-26.437 40.269c-11.494 11.506-24.999 20.71-39.655 26.751-14.655 6.04-30.746 9.492-47.126 9.492-16.092 0-32.183-3.164-47.126-9.492s-28.448-15.245-39.655-26.751c-11.207-11.505-20.402-25.024-26.436-40.269C2.892 164.53-.27 148.422.018 132.315h77.586c0 6.04.862 11.793 3.16 17.258 2.3 5.465 5.46 10.643 9.483 14.67 4.023 4.314 9.196 7.478 14.655 9.779q8.19 3.453 17.242 3.452 9.051 0 17.241-3.452c5.46-2.301 10.345-5.752 14.655-9.779 4.023-4.315 7.471-9.205 9.483-14.67 2.299-5.465 3.161-11.506 3.161-17.258z"/></svg>
